X: 1
T:Slow March  " "
M:6/8
L:1/8
Q:80
C:/JHP
S:MY LODGING'S ON THE COLD GROUND
K:HP
|: {g}c3/4B/4|
{g}A3/2{d}B/2{e}A{GAG}A{d}ce|
{Gdc}d{g}fa{g}a3/2g/2f|  !
{gef}e3/2d/2c{gBd}B{e}A3/2B/2|
{GdG}c{g}e3/2c/2{gBd}B2{g}c3/4B/4| |
{g}A3/2{d}B/2{e}A{GAG}A{d}ce|  !
{Gdc}d{g}fa{g}a3/2g/2f|
{gef}eac{gBd}B{e}A3/2c/2|
{g}A3{GAG}A2:| |:  !
{gef}e3/4d/4|
{gcd}c{g}ea{g}a2e|
{g}f{Gdc}da{g}a3/2g/2f|  !
{gef}e3/2d/2c{gBd}B{e}A3/2B/2|
{g}ce3/2c/2{gBd}B2|1 {gef}e3/4d/4| |
|1 {gcd}c{g}ea{g}a2e|  !
{g}f{Gdc}da{g}a3/2g/2f|
{gef}eac{gBd}B{e}A3/2B/2|
{g}A3{GAG}A2|] |  !
|2 {g}c3/4B/4|
{g}A3/2{d}B/2{e}A{GAG}A{d}ce|
{Gdc}d{g}fa{g}a3/2g/2f|  !
{gef}eac{gBd}B{e}A3/2B/2|
{g}A3{GAG}A2|]
